X: 37548
T: Slovenian Chicken, The
R: reel
M: 4/4
K: Adorian
|:EAAB cBcA|EAAB cAGA|EAAB cBcA|(3cBA Bc BAAG|
EAAB cBcA|EAAB cAGB|(3cBA cd ecAc|BABc BAA2:|
aeed (3eee de|ce (3eee BeAe|cBcd ecAc|BABc BAA2|
aeed (3eee de|ce (3eee BeAe|cBc e2 cAc|BABc BAA2:|
EAAB c2 EA|ABc2 EABc|d2 EABc dd -|dcBc BAA2|
EAAB c2 EA|ABc2 AABc|cBcd ecAc|BABc BAA2:|
aeed (3eee de|ce (3eee BeAe|cBc e2 cAc|BABc BAA2|
aeed (3eee de|ce (3eee BeAe|cBc a2 ecA|BABc BAA2:|

